_site/images/features/icons/circle-automated.svg

<svg height="42" viewBox="0 0 42 42" width="42" xmlns="http://www.w3.org/2000/svg"><g fill="#0b7a76" fill-rule="evenodd"><circle cx="21" cy="21" fill-opacity=".3" r="21"/><path d="m19.52 2.87c-.842224-1.75966037-2.6309715-2.86878758-4.5816037-2.84086003s-3.7068939 1.18780931-4.4983963 2.97086003h-4.44c-1.65685425 0-3 1.34314575-3 3v4c0 .5522847.44771525 1 1 1s1-.4477153 1-1v-4c0-.55228475.44771525-1 1-1h2.78c-.49778913.54763701-.77558939 1.25994537-.78 2 0 1.65685425 1.34314575 3 3 3h7.33c1.7987667.012959 3.3403056-1.28311242 3.6364322-3.05738368.2961266-1.77427127-.7409532-3.50071526-2.4464322-4.07261632zm-1.19 5.13h-7.33c-.5522847 0-1-.44771525-1-1s.4477153-1 1-1 1-.44771525 1-1c-.0166695-1.47421862 1.040316-2.74205373 2.4934789-2.99088299 1.4531629-.24882927 2.871753.5951059 3.3465211 1.99088299.1164705.35013872.4162981.60768288.78.67.8083652.13392509 1.3959848.84077189 1.38 1.66 0 .44291154-.1759459.86768257-.4891317 1.18086832-.3131857.31318576-.7379568.48913168-1.1808683.48913168zm-.33 4c-.5522847 0-1 .4477153-1 1v3c0 .5522847-.4477153 1-1 1h-2.26c-.3911691-1.0016471-1.2030307-1.7805953-2.22-2.13-.9299648-1.9735545-3.03218071-3.1162908-5.19412421-2.8234561-2.16194351.2928347-3.88442246 1.9536249-4.25587579 4.1034561-1.39885739.4597697-2.2572508 1.8667998-2.02606773 3.3210159.23118308 1.4542161 1.48359387 2.5256824 2.95606773 2.5289841h7.33c1.7668037 0 3.2813961-1.2621603 3.6-3h2.07c1.6568542 0 3-1.3431458 3-3v-3c0-.5522847-.4477153-1-1-1zm-7.67 8h-7.33c-.55228475 0-1-.4477153-1-1s.44771525-1 1-1 1-.4477153 1-1c-.01666952-1.4742186 1.04031604-2.7420537 2.49347894-2.990883s2.87175296.5951059 3.34652106 1.990883c.11647055.3501387.4162981.6076829.78.67.8083652.1339251 1.3959848.8407719 1.38 1.66 0 .4429115-.1759459.8676826-.4891317 1.1808683-.3131857.3131858-.7379568.4891317-1.1808683.4891317z" fill-rule="nonzero" transform="translate(10 10)"/></g></svg>

<?xml version="1.0" encoding="UTF-8"?>
<svg width="42px" height="42px" viewBox="0 0 42 42" version="1.1" xmlns="http://www.w3.org/2000/svg" xmlns:xlink="http://www.w3.org/1999/xlink">
    <!-- Generator: Sketch 52.6 (67491) - http://www.bohemiancoding.com/sketch -->
    <title>Group 6</title>
    <desc>Created with Sketch.</desc>
    <g id="Landing-page" stroke="none" stroke-width="1" fill="none" fill-rule="evenodd">
        <g id="1.3--Features" transform="translate(-833.000000, -1423.000000)" fill="#0B7A76">
            <g id="solutions" transform="translate(0.000000, 468.000000)">
                <g id="Group-9" transform="translate(833.000000, 955.000000)">
                    <g id="Group-6">
                        <circle id="Oval" fill-opacity="0.3" cx="21" cy="21" r="21"></circle>
                        <g id="data-sharing" transform="translate(10.000000, 10.000000)" fill-rule="nonzero">
                            <path d="M19.52,2.87 C18.677776,1.11033963 16.8890285,0.00121241754 14.9383963,0.0291399709 C12.9877641,0.0570675243 11.2315024,1.21694928 10.44,3 L6,3 C4.34314575,3 3,4.34314575 3,6 L3,10 C3,10.5522847 3.44771525,11 4,11 C4.55228475,11 5,10.5522847 5,10 L5,6 C5,5.44771525 5.44771525,5 6,5 L8.78,5 C8.28221087,5.54763701 8.00441061,6.25994537 8,7 C8,8.65685425 9.34314575,10 11,10 L18.33,10 C20.1287667,10.012959 21.6703056,8.71688758 21.9664322,6.94261632 C22.2625588,5.16834505 21.225479,3.44190106 19.52,2.87 Z M18.33,8 L11,8 C10.4477153,8 10,7.55228475 10,7 C10,6.44771525 10.4477153,6 11,6 C11.5522847,6 12,5.55228475 12,5 C11.9833305,3.52578138 13.040316,2.25794627 14.4934789,2.00911701 C15.9466418,1.76028774 17.3652319,2.60422291 17.84,4 C17.9564705,4.35013872 18.2562981,4.60768288 18.62,4.67 C19.4283652,4.80392509 20.0159848,5.51077189 20,6.33 C20,6.77291154 19.8240541,7.19768257 19.5108683,7.51086832 C19.1976826,7.82405408 18.7729115,8 18.33,8 Z M18,12 C17.4477153,12 17,12.4477153 17,13 L17,16 C17,16.5522847 16.5522847,17 16,17 L13.74,17 C13.3488309,15.9983529 12.5369693,15.2194047 11.52,14.87 C10.5900352,12.8964455 8.48781929,11.7537092 6.32587579,12.0465439 C4.16393228,12.3393786 2.44145333,14.0001688 2.07,16.15 C0.671142611,16.6097697 -0.187250803,18.0167998 0.0439322747,19.4710159 C0.275115352,20.925232 1.52752614,21.9966983 3,22 L10.33,22 C12.0968037,22 13.6113961,20.7378397 13.93,19 L16,19 C17.6568542,19 19,17.6568542 19,16 L19,13 C19,12.4477153 18.5522847,12 18,12 Z M10.33,20 L3,20 C2.44771525,20 2,19.5522847 2,19 C2,18.4477153 2.44771525,18 3,18 C3.55228475,18 4,17.5522847 4,17 C3.98333048,15.5257814 5.04031604,14.2579463 6.49347894,14.009117 C7.94664184,13.7602877 9.3652319,14.6042229 9.84,16 C9.95647055,16.3501387 10.2562981,16.6076829 10.62,16.67 C11.4283652,16.8039251 12.0159848,17.5107719 12,18.33 C12,18.7729115 11.8240541,19.1976826 11.5108683,19.5108683 C11.1976826,19.8240541 10.7729115,20 10.33,20 Z" id="Shape"></path>
                        </g>
                    </g>
                </g>
            </g>
        </g>
    </g>
</svg>
